!!!!SEGMENT: s-uu--vok-mus-i-hs-22-10_forster-kaspar--onda-che-presto-fuge.krn
!!!cenid: 16xx:1676
!!!COM: Förster, Kaspar
!!!COM-rismid: pe30006147
!!!CDT:
!!!CNT:
!!!OTL: Onda che presto fuge
!!!PDT: 1670
!!!AGN:
!!!SMS-siglum: S-Uu
!!!SMS-shelfmark: Vok. mus. i hs. 22:10
!!!SMS-shelfwork: W
!!!SMS-variant:
!!!SMS-altvar:
!!!NIFC-rismid: 190008729
!!!URL-scan: https://www2.musik.uu.se/duben/presentationSource1.php?Select_Dnr=845
!!!ONB-nifc: UWAGA: poszczególne partie dostępne po kliknięciu w „browse part”. Informacje nt stron tytułowych w opisie na stronie lub na RISM.
!!!key: F
**kern	**fba	**dynam	**kern	**text	**kern	**text	**dynam	**kern
*part4	*part4	*part4	*part3	*part3	*part2	*part2	*part2	*part1
*staff4	*	*	*staff3	*staff3	*staff2	*staff2	*	*staff1
*I"Continuo	*	*	*I"Basso	*	*I"Alto	*	*	*I"Soprano
*I'bc	*	*	*I'B	*	*I'A	*	*	*I'S
*ICklav	*	*	*ICvox	*	*ICvox	*	*	*ICvox
*IGcont	*	*	*Ibass	*	*Ialto	*	*	*Isoprn
*clefF4	*	*	*clefF4	*	*clefC3	*	*	*clefC1
*k[b-]	*	*	*k[b-]	*	*k[b-]	*	*	*k[b-]
*F:	*	*	*F:	*	*F:	*	*	*F:
*M3/2	*	*	*M3/2	*	*M3/2	*	*	*M3/2
=1	=1	=1	=1	=1	=1	=1	=1	=1
*	*	*	*	*	*2\right	*	*	*
!!LO:TX:t=P:problem: 2, 4\right	!	!	!	!
1.FF	.	.	1.r	.	2r	.	.	1.r
.	.	.	.	.	1f	On-	.	.
=2	=2	=2	=2	=2	=2	=2	=2	=2
1.AA	6	.	1.r	.	1c	-da	.	2r
.	.	.	.	.	.	.	.	1cc
.	.	.	.	.	2c\	che	.	.
=3	=3	=3	=3	=3	=3	=3	=3	=3
2.BB-/	.	.	1.r	.	(4d\	pre-	.	1f
.	.	.	.	.	4c\	.	.	.
.	.	.	.	.	4d\	.	.	.
4C/	.	.	.	.	4e\)	.	.	.
*2\right	*	*	*	*	*	*	*	*
2D\	.	.	.	.	(4f\	-sto	.	2f/
.	.	.	.	.	4d\)	.	.	.
=4	=4	=4	=4	=4	=4	=4	=4	=4
1.C	.	.	1.r	.	4e\	fug-	.	(<4g\
.	.	.	.	.	4d\	.	.	4f/
.	.	.	.	.	4e\	.	.	4g\)
.	.	.	.	.	4f\	.	.	4a\
.	.	.	.	.	4g\	.	.	(4b-\
.	.	.	.	.	4e\	.	.	4g\)
=5	=5	=5	=5	=5	=5	=5	=5	=5
1.F	.	.	2r	.	4f\	.	.	4a\
.	.	.	.	.	4e\	.	.	4g\
.	.	.	1F	On-	4f\	.	.	4a\
.	.	.	.	.	4g\	.	.	4b#X\
.	.	.	.	.	4a\	.	.	4cc\
.	.	.	.	.	4b-\	.	.	4dd\
=6	=6	=6	=6	=6	=6	=6	=6	=6
1.C	.	.	1C	-da	4cc\	.	.	1ee
.	.	.	.	.	4g\	.	.	.
.	.	.	.	.	4cc\	.	.	.
.	.	.	.	.	4b-\	.	.	.
*	*	*	*	*	*	*	*	*2\right
.	.	.	2C/	che	4a\	.	.	2ee\
.	.	.	.	.	4g\	.	.	.
=7	=7	=7	=7	=7	=7	=7	=7	=7
1.D	.	.	4D\	pre-	1f	.	.	2r
.	.	.	4C/	.	.	.	.	.
.	.	.	4D\	.	.	.	.	1ff
.	.	.	4E\	.	.	.	.	.
.	.	.	(4F\	-sto	2f\	-ge	.	.
.	.	.	4D\)	.	.	.	.	.
=8	=8	=8	=8	=8	=8	=8	=8	=8
1.E	6	.	4E\	fug-	1.r	.	.	1cc
.	.	.	4C/	.	.	.	.	.
.	.	.	4c\	.	.	.	.	.
.	.	.	4B-\	.	.	.	.	.
.	.	.	4A\	.	.	.	.	2cc\
.	.	.	4G\	.	.	.	.	.
=9	=9	=9	=9	=9	=9	=9	=9	=9
!	!	!	!	!	!LO:SIC:v:t=custos cc	!	!	!
2.F\	6	.	4F\	.	1.r	.	.	4dd\
.	.	.	4E\	.	.	.	.	(<4cc\
.	.	.	4F\	.	.	.	.	4dd\
4G\	6	.	4G\	.	.	.	.	4ee\
4A\	6	.	4A\	.	.	.	.	4ff\)
4B-\	#	.	4Bn\	.	.	.	.	4dd\
!	!	!	!	!	!LO:LB:g=original	!	!	!LO:LB:g=original
=10	=10	=10	=10	=10	=10	=10	=10	=10
*	*	*	*2\right	*	*	*	*	*
2c\	.	.	2c\	.	2r	.	.	4ee\
.	.	.	.	.	.	.	.	4dd\
1C	.	.	2C/	-ge	1cc	Au-	.	4ee\
.	.	.	.	.	.	.	.	4cc\
.	.	.	2C/	che	.	.	.	(4dd\
.	.	.	.	.	.	.	.	4ee\)
=11	=11	=11	=11	=11	=11	=11	=11	=11
1.D	.	.	4D\	pre-	1f	-ra	.	2ff\
.	.	.	4C/	.	.	.	.	.
.	.	.	4D\	.	.	.	.	2ff\
.	.	.	4E\	.	.	.	.	.
.	.	.	(<4F\	-sto	2f\	che	.	2r
.	.	.	4D/)	.	.	.	.	.
=12	=12	=12	=12	=12	=12	=12	=12	=12
1.E	6	.	1.E	fug-	4g\	si	.	2r
.	.	.	.	.	4f\	.	.	.
.	.	.	.	.	4g\	.	.	1cc
.	.	.	.	.	4e\	.	.	.
.	.	.	.	.	(4f\	dis-	.	.
.	.	.	.	.	4g\)	.	.	.
!	!	!	!LO:LB:g=original	!	!	!	!	!
=13	=13	=13	=13	=13	=13	=13	=13	=13
1.F	.	.	1F	-ge	4a\	-per-	.	1f
.	.	.	.	.	4g\	.	.	.
.	.	.	.	.	4a\	.	.	.
.	.	.	.	.	4f\	.	.	.
.	.	.	2r	.	4g\	.	.	2cc\
.	.	.	.	.	4a\	.	.	.
=14	=14	=14	=14	=14	=14	=14	=14	=14
1.C	.	.	2r	.	4g\	.	.	1ee
.	.	.	.	.	4f\	.	.	.
.	.	.	1c	Au-	4e\	.	.	.
.	.	.	.	.	4d\	.	.	.
.	.	.	.	.	4c\	.	.	2ee\
.	.	.	.	.	4B-/	.	.	.
=15	=15	=15	=15	=15	=15	=15	=15	=15
!LO:SIC:v:t=custos G	!	!	!	!	!	!	!	!
1.F	.	.	1F	-ra	2A/	.	.	2ff\
.	.	.	.	.	2A/	-de	.	2ff\
.	.	.	2F\	che	2f\	che	.	2a\
!LO:LB:g=original	!	!	!	!	!	!	!	!
=16	=16	=16	=16	=16	=16	=16	=16	=16
2.G\	6	.	4G\	si	1e-X	si	.	4b-\
.	.	.	4F\	.	.	.	.	4a\
.	.	.	4G\	.	.	.	.	4b-\
4A\	.	.	4A\	.	.	.	.	4cc\
2B-\	.	.	2B-\	.	2d\	dis-	.	2dd\
=17	=17	=17	=17	=17	=17	=17	=17	=17
!	!	!	!	!	!	!	!	!LO:SIC:v:t=custos dd
1B-	.	.	2B-\	dis-	(1e-X	-per-	.	1.cc
.	.	.	2.B-\	-per-	.	.	.	.
2A\	4 2	.	.	.	2f\)	.	.	.
.	.	.	(4A\	-de	.	.	.	.
!	!	!	!	!	!	!	!	!LO:LB:g=original
=18	=18	=18	=18	=18	=18	=18	=18	=18
1B-	.	.	2B-\)	.	2f\	-de	.	2dd\
.	.	.	2r	.	2r	.	.	2r
2A\	.	.	2A\	che	2f\	che	.	2cc\
!	!	!	!	!	!LO:LB:g=original	!	!	!
=19	=19	=19	=19	=19	=19	=19	=19	=19
1G	.	.	1G	si	2g\	si	.	(4b-\
.	.	.	.	.	.	.	.	4a\
.	.	.	.	.	(4d\	dis-	.	4b-\
.	.	.	.	.	4e\	.	.	4cc\)
2F\	.	.	2F\	dis-	2f\)	.	.	(4a\
.	.	.	.	.	.	.	.	4b-\)
=20	=20	=20	=20	=20	=20	=20	=20	=20
1.C	.	.	2C/	-per-	2e\	-per-	.	2g\
.	.	.	2C/	-de	2e\	-de	.	2g\
.	.	.	2r	.	2r	.	.	2r
=21	=21	=21	=21	=21	=21	=21	=21	=21
!	!	!	!	!	!LO:TX:a:B:t=adagio	!	!	!LO:TX:b:B:t=adagio
1.C	.	.	1.r	.	2r	.	.	2r
.	.	.	.	.	2e\	fred-	.	2g\
.	.	.	.	.	2e\	-do	.	2g\
=22	=22	=22	=22	=22	=22	=22	=22	=22
1.C	.	.	2r	.	[1.e	gel	.	[1.g
!	!	!	!LO:TX:a:B:t=adagio	!	!	!	!	!
.	.	.	2C/	fred-	.	.	.	.
.	.	.	2C/	-do	.	.	.	.
=23	=23	=23	=23	=23	=23	=23	=23	=23
1.C	.	.	1.C	gel	1.e]	.	.	1.g]
=24	=24	=24	=24	=24	=24	=24	=24	=24
2r	.	.	2r	.	2r	.	.	2r
2G\	.	.	2G\	che	2g\	che	.	2b-\
!	!	!	!LO:SIC:v:t=custos D	!	!	!	!	!
2E-X\	6	.	2E-X\	si	2g\	si	.	2cc\
!	!	!	!LO:LB:g=original	!	!	!	!	!
=25	=25	=25	=25	=25	=25	=25	=25	=25
1.D	#	.	1D	strug-	1f#X	strug-	.	2dd\
.	.	.	.	.	.	.	.	2dd\
.	.	.	2D\	-ge	2f#\	-ge	.	2a\
=26	=26	=26	=26	=26	=26	=26	=26	=26
1D	#	.	2r	.	2r	.	.	2b-\
.	.	.	2r	.	2r	.	.	2b-\
!	!	!	!	!	!	!	!	!LO:SIC:v:t=custos dd
2D\	.	.	2D\	te-	2f#X\	te-	.	2r
!	!	!	!	!	!	!	!	!LO:LB:g=original
=27	=27	=27	=27	=27	=27	=27	=27	=27
1E-X	.	.	2E-X\	-so-	2g\	-so-	.	1r
.	.	.	2E-\	-ro	2g\	-ro	.	.
2BB-/	6	.	2BB-/	te-	2d\	te-	.	2dd\
=28	=28	=28	=28	=28	=28	=28	=28	=28
2.C/	.	.	2.C/	-so-	2.e-X\	-so-	.	2.cc\
4D\	.	.	4D\	-ro	4f\	-ro	.	4cc\
!LO:SIC:v:t=custos F	!	!	!	!	!	!	!	!
2E-X\	.	.	2E-X\	che	2g\	che	.	2cc\
!LO:LB:g=original	!	!	!	!	!LO:LB:g=original	!	!	!
=29	=29	=29	=29	=29	=29	=29	=29	=29
2F\	.	.	2F\	si	(4f\	si	.	2cc\
.	.	.	.	.	4e-X\)	.	.	.
1G	.	.	1G	per-	1d	per-	.	2.cc\
.	.	.	.	.	.	.	.	(4b#X\
=30	=30	=30	=30	=30	=30	=30	=30	=30
1.C	-	.	2C/	-de	2e-X\	-de	.	2cc\)
.	.	.	2r	.	1cc	On-	.	2r
.	.	.	2r	.	.	.	.	2r
=31	=31	=31	=31	=31	=31	=31	=31	=31
1.D	.	.	1.r	.	1f	-da	.	1.r
.	.	.	.	.	2f\	che	.	.
=32	=32	=32	=32	=32	=32	=32	=32	=32
1.E	6	.	1.r	.	4g\	pre-	.	1.r
.	.	.	.	.	4f\	.	.	.
.	.	.	.	.	4g\	.	.	.
.	.	.	.	.	4a\	.	.	.
.	.	.	.	.	(4b-\	-sto	.	.
.	.	.	.	.	4g\)	.	.	.
=33	=33	=33	=33	=33	=33	=33	=33	=33
1.F	.	.	1.r	.	4a\	fug-	.	2r
.	.	.	.	.	4b-\	.	.	.
.	.	.	.	.	4a\	.	.	1ff
.	.	.	.	.	4g\	.	.	.
.	.	.	.	.	4f\	.	.	.
.	.	.	.	.	4e\	.	.	.
=34	=34	=34	=34	=34	=34	=34	=34	=34
1.G	.	.	1.r	.	4d\	.	.	1b-
.	.	.	.	.	4c\	.	.	.
.	.	.	.	.	4d\	.	.	.
.	.	.	.	.	4g\	.	.	.
.	.	.	.	.	4f\	.	.	2b-\
.	.	.	.	.	4g\	.	.	.
=35	=35	=35	=35	=35	=35	=35	=35	=35
1.A	6	.	1.r	.	2c\	.	.	(4cc\
.	.	.	.	.	.	.	.	4b-\
.	.	.	.	.	2c\	-ge	.	4cc\
.	.	.	.	.	.	.	.	4dd\)
.	.	.	.	.	2cc\	che	.	(4ee\
.	.	.	.	.	.	.	.	4cc\)
=36	=36	=36	=36	=36	=36	=36	=36	=36
1.B-	.	.	1.r	.	4b-\	pre-	.	4dd\
.	.	.	.	.	4cc\	.	.	4ee-X\
.	.	.	.	.	4b-\	.	.	4dd\
.	.	.	.	.	4a\	.	.	4cc\
.	.	.	.	.	(4g\	-sto	.	4b-\
.	.	.	.	.	4f\)	.	.	4a\
!	!	!	!	!	!LO:LB:g=original	!	!	!LO:LB:g=original
=37	=37	=37	=37	=37	=37	=37	=37	=37
2c\	.	.	2r	.	4e\	fug-	.	4g\
.	.	.	.	.	4d\	.	.	4f/
1C	.	.	1C	On-	4e\	.	.	4g\
.	.	.	.	.	4f\	.	.	4a\
.	.	.	.	.	4g\	.	.	4b-\
.	.	.	.	.	4e\	.	.	4cc\
=38	=38	=38	=38	=38	=38	=38	=38	=38
1.FF	.	.	1FF	-da	2f\	-ge	.	2a\
.	.	.	.	.	1f	On-	.	2r
.	.	.	2FF/	che	.	.	.	2r
=39	=39	=39	=39	=39	=39	=39	=39	=39
1.AA	6	.	4AA/	pre-	1c	-da	.	2r
.	.	.	4GG/	.	.	.	.	.
.	.	.	4AA/	.	.	.	.	1cc
.	.	.	4BB-/	.	.	.	.	.
.	.	.	(4C/	-sto	2c\	che	.	.
!	!	!	!LO:SIC:v:t=custos BB-	!	!	!	!	!
.	.	.	4AA/)	.	.	.	.	.
!	!	!	!LO:LB:g=original	!	!	!	!	!
=40	=40	=40	=40	=40	=40	=40	=40	=40
2.BB-/	.	.	4BB-/	fug-	4d\	pre-	.	1f
.	.	.	4AA/	.	4c\	.	.	.
.	.	.	4BB-/	.	4d\	.	.	.
4C/	.	.	4C/	.	4e\	.	.	.
2D\	.	.	2D\	.	(4f\	-sto	.	2f/
.	.	.	.	.	4d\)	.	.	.
=41	=41	=41	=41	=41	=41	=41	=41	=41
1.C	.	.	1C	-ge	4e\	fug-	.	4g\
.	.	.	.	.	4d\	.	.	4f/
.	.	.	.	.	4e\	.	.	4g\
.	.	.	.	.	4f\	.	.	4a\
.	.	.	2r	.	4g\	.	.	(4b-\
.	.	.	.	.	4e\	.	.	4cc\)
=42	=42	=42	=42	=42	=42	=42	=42	=42
1.F	.	.	2r	.	4f\	.	.	4a\
.	.	.	.	.	4e\	.	.	4g\
.	.	.	1F	On-	4f\	.	.	4a\
.	.	.	.	.	4g\	.	.	4b-\
.	.	.	.	.	4a\	.	.	4cc\
.	.	.	.	.	4bn\	.	.	4dd\
=43	=43	=43	=43	=43	=43	=43	=43	=43
1.C	.	.	1C	-da	4cc\	.	.	1ee
.	.	.	.	.	4g\	.	.	.
.	.	.	.	.	4cc\	.	.	.
.	.	.	.	.	4b-X\	.	.	.
.	.	.	2C/	che	4a\	.	.	2ee\
.	.	.	.	.	4g\	.	.	.
=44	=44	=44	=44	=44	=44	=44	=44	=44
1.D	.	.	(<4D/	pre-	1f	.	.	2r
.	.	.	4C/	.	.	.	.	.
.	.	.	4D/)	.	.	.	.	1ff
.	.	.	4E\	.	.	.	.	.
.	.	.	(4F\	-sto	2f\	-ge	.	.
.	.	.	4D\)	.	.	.	.	.
!	!	!	!	!	!LO:LB:g=original	!	!	!
=45	=45	=45	=45	=45	=45	=45	=45	=45
!LO:SIC:v:t=custos F	!	!	!	!	!	!	!	!
1.E	6	.	4E\	fug-	1.r	.	.	1cc
.	.	.	4C/	.	.	.	.	.
.	.	.	4c\	.	.	.	.	.
.	.	.	4B-\	.	.	.	.	.
.	.	.	4A\	.	.	.	.	2cc\
.	.	.	4G\	.	.	.	.	.
!LO:LB:g=original	!	!	!	!	!	!	!	!
=46	=46	=46	=46	=46	=46	=46	=46	=46
2.F\	6	.	4F\	.	1.r	.	.	4dd\
.	.	.	4E\	.	.	.	.	4cc\
.	.	.	4F\	.	.	.	.	4dd\
4G\	6	.	4G\	.	.	.	.	4ee\
4A\	6	.	4A\	.	.	.	.	(4ff\
!LO:N:acc=#	!	!	!	!	!	!	!	!
4Bn\	6	.	4Bn\	.	.	.	.	4dd\)
!	!	!	!	!	!	!	!	!LO:LB:g=original
=47	=47	=47	=47	=47	=47	=47	=47	=47
2c\	.	.	2c\	.	2r	.	.	4ee\
.	.	.	.	.	.	.	.	4dd\
1C	.	.	2C/	-ge	1cc	Au-	.	4ee\
.	.	.	.	.	.	.	.	4cc\
.	.	.	2C/	che	.	.	.	(4dd\
.	.	.	.	.	.	.	.	4ee\)
=48	=48	=48	=48	=48	=48	=48	=48	=48
1.D	.	.	4D\	pre-	1f	-ra	.	2ff\
.	.	.	4C/	.	.	.	.	.
.	.	.	4D\	.	.	.	.	2ff\
.	.	.	4E\	.	.	.	.	.
.	.	.	(4F\	.	2f\	che	.	2r
.	.	.	4D\)	-sto	.	.	.	.
!	!	!	!LO:LB:g=original	!	!	!	!	!
=49	=49	=49	=49	=49	=49	=49	=49	=49
1.E	6	.	1.E	fug-	4g\	si	.	2r
.	.	.	.	.	4f\	.	.	.
.	.	.	.	.	4g\	.	.	1cc
.	.	.	.	.	4e\	.	.	.
.	.	.	.	.	(4f\	dis-	.	.
.	.	.	.	.	4g\)	.	.	.
=50	=50	=50	=50	=50	=50	=50	=50	=50
1.F	.	.	1F	-ge	4a\	-per-	.	1f
.	.	.	.	.	4g\	.	.	.
.	.	.	.	.	4a\	.	.	.
.	.	.	.	.	4f\	.	.	.
.	.	.	2r	.	4g\	.	.	2cc\
.	.	.	.	.	4a\	.	.	.
=51	=51	=51	=51	=51	=51	=51	=51	=51
1.C	.	.	2r	.	4g\	.	.	1ee
.	.	.	.	.	4f\	.	.	.
.	.	.	1c	Au-	4e\	.	.	.
.	.	.	.	.	4d\	.	.	.
.	.	.	.	.	4c\	.	.	2ee\
.	.	.	.	.	4B-/	.	.	.
=52	=52	=52	=52	=52	=52	=52	=52	=52
1.F	.	.	1F	-ra	2A/	.	.	2ff\
.	.	.	.	.	2A/	-de	.	2ff\
.	.	.	2F\	che	2f\	che	.	2a\
=53	=53	=53	=53	=53	=53	=53	=53	=53
2.G\	6	.	4G\	si	1e-X	si	.	4b-\
.	.	.	4F\	.	.	.	.	4a\
.	.	.	4G\	.	.	.	.	4b-\
4A\	.	.	4A\	.	.	.	.	4cc\
2B-\	.	.	2B-\	.	2d\	dis-	.	2dd\
=54	=54	=54	=54	=54	=54	=54	=54	=54
1B-	4 2	.	2B-\	dis-	1.e	-per-	.	1.cc
.	.	.	2.B-\	-per-	.	.	.	.
2A\	6	.	.	.	.	.	.	.
.	.	.	(4A\	-de	.	.	.	.
=55	=55	=55	=55	=55	=55	=55	=55	=55
2.B-\	.	.	2B-\)	.	2d\	-de	.	2dd\
.	.	.	(4B-\	fred-	2r	.	.	(4dd\
4c\	.	.	4c\)	.	.	.	.	4ee-X\)
!	!	!	!	!	!LO:SIC:v:t=custos g	!	!	!
4A\	.	.	(4A\	-do	2r	.	.	(4cc\
!	!	!	!	!	!	!	!	!LO:SIC:v:t=custos b-
4B-\	.	.	4B-\)	.	.	.	.	4dd\)
!	!	!	!	!	!LO:LB:g=original	!	!	!LO:LB:g=original
=56	=56	=56	=56	=56	=56	=56	=56	=56
1.G	.	.	1.G	gel	2r	.	.	1b-
.	.	.	.	.	(4g\	fred-	.	.
.	.	.	.	.	4a\)	.	.	.
.	.	.	.	.	(4f\	-do	.	2r
.	.	.	.	.	4g\)	.	.	.
=57	=57	=57	=57	=57	=57	=57	=57	=57
1.C	.	.	2r	.	4e\	gel	.	2r
.	.	.	.	.	4d\	.	.	.
.	.	.	2.c\	che	4e\	.	.	(4cc\
.	.	.	.	.	4f\	.	.	4dd\)
.	.	.	.	.	(4g\	che	.	(4b-\
.	.	.	4c\	si	4e\)	.	.	4cc\)
=58	=58	=58	=58	=58	=58	=58	=58	=58
1.F	.	.	2F\	strug-	4f\	si	.	2a\
.	.	.	.	.	4g\	.	.	.
.	.	.	2.F\	-ge	4a\	.	.	2.ff\
.	.	.	.	.	4b-\	.	.	.
.	.	.	.	.	(4cc\	di	.	.
!	!	!	!LO:SIC:v:t=custos BB-	!	!	!	!	!
.	.	.	4F\	si	4a\)	.	.	4ff\
!	!	!	!LO:LB:g=original	!	!	!	!	!
=59	=59	=59	=59	=59	=59	=59	=59	=59
!LO:SIC:v:t=custos C	!	!	!	!	!	!	!	!
1.BB-	.	.	2BB-/	strug-	2b-\	strug-	.	2dd\
.	.	.	2BB-/	-ge	2b-\	-ge	.	2dd\
.	.	.	2BB-/	te-	2d\	te-	.	2dd\
!LO:LB:g=original	!	!	!	!	!	!	!	!
=60	=60	=60	=60	=60	=60	=60	=60	=60
2.C/	.	.	2.C/	-so-	2.e\	-so-	.	2.cc\
4D\	.	.	4D\	-ro	4f\	-ro	.	4cc\
2E-X\	.	.	2E-X\	che	2g\	che	.	2b-\
=61	=61	=61	=61	=61	=61	=61	=61	=61
2C/	6 5	.	2C/	si	2g\	si	.	2a\
1D	4:3	.	1D	per-	2.g\	per-	.	1a
.	.	.	.	.	(4f#X\	-de	.	.
=62	=62	=62	=62	=62	=62	=62	=62	=62
2GG/	#	.	2GG/	-de	2g\)	.	.	2bn\
1G	.	.	2.G\	fra-	2.Bn/	fra-	.	2r
.	.	.	.	.	.	.	.	2r
.	.	.	4G\	-gi-	4B/	-gi-	.	.
!	!	!	!	!	!LO:LB:g=original	!	!	!
=63	=63	=63	=63	=63	=63	=63	=63	=63
2A\	.	.	2A\	-li-	2c\	-li-	.	1.r
!LO:N:acc=#	!	!	!	!	!	!	!	!
2Bn\	.	.	2Bn\	-ſsi-	2d\	-ſsi-	.	.
2c\	.	.	2c\	-mo	2e\	-mo	.	.
=64	=64	=64	=64	=64	=64	=64	=64	=64
1c	.	.	1c	ve-	1.d	ve-	.	1.r
2Bny\	4 2	.	2Bn\	.	.	.	.	.
=65	=65	=65	=65	=65	=65	=65	=65	=65
2c\	.	.	1c	-tro	2e\	-tro	.	1.r
2c\	.	.	.	.	1cc	Tem-	.	.
2C/	.	.	2r	.	.	.	.	.
=66	=66	=66	=66	=66	=66	=66	=66	=66
2D\	.	.	2r	.	2.f\	-po	.	1.r
2D\	.	.	2r	.	.	.	.	.
.	.	.	.	.	4b-\	di	.	.
2E\	.	.	2r	.	4a\	gio-	.	.
.	.	.	.	.	4g\	-ven-	.	.
=67	=67	=67	=67	=67	=67	=67	=67	=67
1.F	.	.	1r	.	1a	-tù	.	2r
!	!	!	!	!	!	!	!	!LO:SIC:v:t=custos b-
.	.	.	.	.	.	.	.	1ff
!	!	!	!LO:SIC:v:t=custos G	!	!	!	!	!
.	.	.	2F\	non	2A/	no(n)	.	.
!	!	!	!LO:LB:g=original	!	!	!	!	!LO:LB:g=original
=68	=68	=68	=68	=68	=68	=68	=68	=68
1G	.	.	2G\	tor-	2B-/	tor-	.	2.b-\
.	.	.	2G\	-na	2B-/	-na	.	.
.	.	.	.	.	.	.	.	4ee-X\
2A\	.	.	2A\	in	2r	.	.	4dd\
.	.	.	.	.	.	.	.	4cc\
=69	=69	=69	=69	=69	=69	=69	=69	=69
1B-	.	.	2B-\	die-	2r	.	.	1dd
.	.	.	2B-\	-tro	2r	.	.	.
2D/	6	.	2D\	no(n)	2b-\	no(n)	.	2dd\
=70	=70	=70	=70	=70	=70	=70	=70	=70
2E-X\	.	.	2E-X\	tor-	2g\	tor-	.	2cc\
2F\	.	.	2F\	-na	2a\	-na	.	2cc\
!LO:SIC:v:t=custos F	!	!	!	!	!	!	!	!
2G\	.	.	2G\	in	2b-\	in	.	2cc\
!LO:LB:g=original	!	!	!	!	!	!	!	!
=71	=71	=71	=71	=71	=71	=71	=71	=71
1.F	4:3	.	(2F\	die-	1b-	die-	.	1.cc
.	.	.	1FF)	.	.	.	.	.
.	.	.	.	.	(2a\	-tro	.	.
=72	=72	=72	=72	=72	=72	=72	=72	=72
2BB-/	.	.	2BB-/	-tro	1b-)	.	.	2dd\
1B-	.	.	1B-	Tem-	.	.	.	1dd
.	.	.	.	.	2r	.	.	.
!	!	!	!	!	!	!	!	!
=73	=73	=73	=73	=73	=73	=73	=73	=73
2.F\	.	.	2.F\	-po	1.r	.	.	2.a\
4B-\	.	.	4B-\	di	.	.	.	4dd\
4A\	.	.	4A\	gio-	.	.	.	4cc\
4G\	.	.	4G\	-ven-	.	.	.	4b-\
!	!	!	!	!	!LO:LB:g=original	!	!	!
=74	=74	=74	=74	=74	=74	=74	=74	=74
1F	.	.	1F	-tù	2r	.	.	1a
.	.	.	.	.	1f	Tem-	.	.
2FF/	.	.	2FF/	no(n)	.	.	.	2r
=75	=75	=75	=75	=75	=75	=75	=75	=75
!	!	!	!	!	!	!	!	!LO:SIC:v:t=custos f
1GG	.	.	2GG/	tor-	2.B-/	-po	.	1.r
.	.	.	2GG/	-na	.	.	.	.
.	.	.	.	.	4e-X\	di	.	.
2AA/	.	.	2AA/	in	4d\	gio-	.	.
.	.	.	.	.	4c\	-ve(n)-	.	.
!	!	!	!	!	!	!	!	!LO:LB:g=original
=76	=76	=76	=76	=76	=76	=76	=76	=76
1BB-	.	.	2BB-/	die-	1d	-tù	.	2r
.	.	.	2BB-/	-tro	.	.	.	2r
2B-\	.	.	2B-\	no(n)	2d\	no(n)	.	2f/
=77	=77	=77	=77	=77	=77	=77	=77	=77
1B-	4 #2	.	1B-	tor-	2e\	tor-	.	2g\
.	.	.	.	.	2e\	-na	.	2g\
!	!	!	!LO:SIC:v:t=custos G	!	!	!	!	!
2A\	.	.	(2A\	-na	2f#X\	in	.	2a\
!	!	!	!LO:LB:g=original	!	!	!	!	!
=78	=78	=78	=78	=78	=78	=78	=78	=78
1.G	.	.	1G)	.	2g\	die-	.	2b-\
.	.	.	.	.	2g\	-tro	.	2b-\
.	.	.	2G\	in	2B-/	non	.	2d/
=79	=79	=79	=79	=79	=79	=79	=79	=79
1G	-6r 4	.	1G	die-	2c\	tor-	.	2e-X/
.	.	.	.	.	2c\	-na	.	2e-/
2F\	6	.	(2F\	-tro	2d\	in	.	2f/
=80	=80	=80	=80	=80	=80	=80	=80	=80
1.E-X	.	.	1E-X)	.	2e-X\	die-	.	2g\
.	.	.	.	.	2e-\	-tro	.	2g\
.	.	.	2E-\	no(n)	2e-\	non	.	2g\
=81	=81	=81	=81	=81	=81	=81	=81	=81
2A-X\	.	.	2A-X\	tor-	2c\	tor-	.	2e-X/
1F	.	.	2.F\	-na	2.d\	-na	.	2.f/
!	!	!	!	!	!LO:SIC:v:t=custos c	!	!	!
.	.	.	4F\	in	4c\	in	.	4en/
!	!	!	!	!	!LO:LB:g=original	!	!	!
=82	=82	=82	=82	=82	=82	=82	=82	=82
1.G	4:3	.	(2G\	die-	1c	die-	.	(2e/
.	.	.	1GG)	.	.	.	.	1d)
.	.	.	.	.	(2Bn/	-tro	.	.
=83	=83	=83	=83	=83	=83	=83	=83	=83
1.C	-	.	2C/	-tro	2c\)	.	.	2e/
.	.	.	1c	Tem-	2r	.	.	2r
.	.	.	.	.	2r	.	.	2r
!	!	!	!	!	!	!	!	!LO:LB:g=original
=84	=84	=84	=84	=84	=84	=84	=84	=84
1D	6	.	2.F\	-po	1.r	.	.	1.r
.	.	.	4B-\	di	.	.	.	.
2E\	.	.	4A\	gio-	.	.	.	.
.	.	.	4G\	-ve(n)-	.	.	.	.
=85	=85	=85	=85	=85	=85	=85	=85	=85
1F	.	.	1A	-tù	2r	.	.	2r
.	.	.	.	.	1f	Tem-	.	2r
!LO:SIC:v:t=custos G	!	!	!	!	!	!	!	!
2F\	.	.	2F\	no(n)	.	.	.	2a\
!LO:LB:g=original	!	!	!	!	!	!	!	!
=86	=86	=86	=86	=86	=86	=86	=86	=86
1G	.	.	2G\	tor-	2.B-/	-po	.	2b-\
.	.	.	2G\	-na	.	.	.	2b-\
.	.	.	.	.	4e-X\	di	.	.
2A\	.	.	2A\	in	4d\	gio-	.	2cc\
.	.	.	.	.	4c\	-ven-	.	.
=87	=87	=87	=87	=87	=87	=87	=87	=87
1B-	.	.	2B-\	die-	1d	-tù	.	2f/
.	.	.	2B-\	-tro	.	.	.	2f/
!	!	!	!LO:SIC:v:t=custos C	!	!	!	!	!
2BB-/	.	.	2BB-/	non	2d\	non	.	2r
!	!	!	!LO:LB:g=original	!	!	!	!	!
=88	=88	=88	=88	=88	=88	=88	=88	=88
2C/	.	.	2C/	tor-	2e\	tor-	.	1.r
2D/	.	.	2D\	-na	2f#X\	-na	.	.
2E-X\	.	.	2E-X\	in	2g\	in	.	.
=89	=89	=89	=89	=89	=89	=89	=89	=89
1.D	#	.	2D\	die-	2f\	die-	.	2r
.	.	.	2D\	-tro	2d\	-tro	.	2r
.	.	.	2D\	non	2f\	non	.	2dd\
=90	=90	=90	=90	=90	=90	=90	=90	=90
1.C	-	.	2C/	tor-	2g\	tor-	.	2ee-X\
.	.	.	2C/	-na	2g\	-na	.	2cc\
.	.	.	2C/	in	2g\	in	.	2b-\
=91	=91	=91	=91	=91	=91	=91	=91	=91
1.D	#4r	.	(2D\	die-	1g	die-	.	(2b-\
.	.	.	1DD)	.	.	.	.	1a)
!	!	!	!	!	!LO:SIC:v:t=custos g	!	!	!
.	.	.	.	.	(2f#X\	-tro	.	.
!	!	!	!	!	!LO:LB:g=original	!	!	!
=92	=92	=92	=92	=92	=92	=92	=92	=92
1GG	.	.	1GG	-tro	2g\)	.	.	1b-
.	.	.	.	.	1g	Tem-	.	.
2G\	.	.	2G\	no(n)	.	.	.	2r
=93	=93	=93	=93	=93	=93	=93	=93	=93
1A	.	.	2A\	tor-	2.c\	-po	.	1.r
.	.	.	2A\	-na	.	.	.	.
.	.	.	.	.	4f\	di	.	.
!LO:N:acc=#	!	!	!	!	!	!	!	!
2Bn\	.	.	2Bn\	in	4e\	gio-	.	.
.	.	.	.	.	4d\	-ven-	.	.
=94	=94	=94	=94	=94	=94	=94	=94	=94
1c	.	.	2c\	die-	1e	-tù	.	2r
.	.	.	2c\	-tro	.	.	.	1cc
2c\	.	.	2r	.	2c\	non	.	.
*clefC4	*	*	*	*	*	*	*	*
=95	=95	=95	=95	=95	=95	=95	=95	=95
*k[b-]	*	*	*	*	*	*	*	*
1d	.	.	2r	.	2d\	tor-	.	2.f/
.	.	.	2r	.	2d\	-na	.	.
.	.	.	.	.	.	.	.	4b-\
2e\	.	.	2r	.	2e\	in	.	4a\
.	.	.	.	.	.	.	.	4g\
!	!	!	!	!	!	!	!	!LO:LB:g=original
=96	=96	=96	=96	=96	=96	=96	=96	=96
1f	.	.	2r	.	2f\	die-	.	1a
.	.	.	2r	.	2f\	-tro	.	.
*clefF4	*	*	*	*	*	*	*	*
*k[b-]	*	*	*	*	*	*	*	*
2F\	.	.	2F\	non	2a\	non	.	2cc\
=97	=97	=97	=97	=97	=97	=97	=97	=97
*	*	*	*	*	*clefC1	*	*	*
!	!	!	!	!	!LO:N:acc=#	!	!	!
1F	#4 2	.	1F	tor-	2bn\	tor-	.	2dd\
.	.	.	.	.	2b\	-na	.	2dd\
!	!	!	!LO:SIC:v:t=custos D	!	!	!	!	!
2E\	.	.	2E\	-na	2cc\	in	.	2ee\
!	!	!	!LO:LB:g=original	!	!	!	!	!
=98	=98	=98	=98	=98	=98	=98	=98	=98
1D	.	.	1D	non	2dd\	die-	.	2ff\
.	.	.	.	.	2.dd\	-tro	.	2.ff\
!LO:SIC:v:t=custos BB-	!	!	!	!	!	!	!	!
2AA/	6	.	2AA/	non	.	.	.	.
!	!	!	!	!	!LO:SIC:v:t=custos b-	!	!	!
.	.	.	.	.	4cc\	non	.	4ee-X\
!LO:LB:g=original	!	!	!	!	!LO:LB:g=original	!	!	!
=99	=99	=99	=99	=99	=99	=99	=99	=99
1.BB-	.	.	2BB-/	tor-	4b-\	tor-	.	4dd\
.	.	.	.	.	4cc\	.	.	4ee-X\
.	.	.	2BB-/	-na	4b-\	.	.	4dd\
.	.	.	.	.	4a\	.	.	4cc\
.	.	.	2BB-/	in	4g\	.	.	4b-\
.	.	.	.	.	4f/	.	.	4a\
*	*	*	*	*	*clefC3	*	*	*
=100	=100	=100	=100	=100	=100	=100	=100	=100
*	*	*	*	*	*k[b-]	*	*	*
1C	.	.	2C/	die-	2e\	.	.	2g\
.	.	.	2C/	-tro	2e\	-na	.	2g\
2AA/	6	.	2AA/	non	2f\	no(n)	.	2cc\
=101	=101	=101	=101	=101	=101	=101	=101	=101
2BB-/	.	.	2BB-/	tor-	2f\	tor-	.	2dd\
!LO:N:acc=#	!	!	!	!	!	!	!	!
1BBn	.	.	2BBn/	-na	2f\	-na	.	2dd\
.	.	.	2BB/	in	2f\	in	.	2dd\
=102	=102	=102	=102	=102	=102	=102	=102	=102
1.C	.	.	1.C	die-	1f	die-	.	1.g
.	.	.	.	.	2e\	.	.	.
=103	=103	=103	=103	=103	=103	=103	=103	=103
2FF/	.	.	2FF/	-tro	1.f;	-tro	.	1.a;
2r	.	.	2r	.	.	.	.	.
2r	.	.	2r	.	.	.	.	.
!	!	!	!	!	!	!	!	!LO:LB:g=original
=104||	=104||	=104||	=104||	=104||	=104||	=104||	=104||	=104||
*M4/4	*	*	*M4/4	*	*M4/4	*	*	*M4/4
*met(c)	*	*	*met(c)	*	*met(c)	*	*	*met(c)
2F\	.	.	2r	.	4r	.	.	1r
.	.	.	.	.	8r	.	.	.
.	.	.	.	.	8c\	S’of-	.	.
4F\	.	.	2r	.	4f\	-fus-	.	.
4AA/	6	.	.	.	8f\	-ca	.	.
!	!	!	!	!	!LO:SIC:v:t=custos g	!	!	!
.	.	.	.	.	8f\	un	.	.
!	!	!	!	!	!LO:LB:g=original	!	!	!
=105	=105	=105	=105	=105	=105	=105	=105	=105
4BB-/	.	.	2r	.	16g\LL	bel	.	2r
.	.	.	.	.	16f\	.	.	.
.	.	.	.	.	16g\	.	.	.
.	.	.	.	.	16a\JJ	.	.	.
4C/	.	.	.	.	8g\	.	.	.
.	.	.	.	.	8g\	se-	.	.
2F\	.	.	2r	.	4a\	-re-	.	4r
.	.	.	.	.	8f\	-no	.	8r
.	.	.	.	.	8a\	la	.	8f/
=106	=106	=106	=106	=106	=106	=106	=106	=106
2E\	6	.	2r	.	16g\LL	ro-	.	4cc\
.	.	.	.	.	16f\	.	.	.
.	.	.	.	.	16g\	.	.	.
.	.	.	.	.	16a\JJ	.	.	.
.	.	.	.	.	8g\L	.	.	8cc\
.	.	.	.	.	16a\L	.	.	8cc\
.	.	.	.	.	16g\JJ	.	.	.
2D/	2:6	.	2r	.	8f\	.	.	16dd\LL
.	.	.	.	.	.	.	.	16cc\
.	.	.	.	.	8e\	-sa	.	16dd\
.	.	.	.	.	.	.	.	16ee\JJ
.	.	.	.	.	8f\	si	.	8dd\
.	.	.	.	.	8g\	sco-	.	8dd\
=107	=107	=107	=107	=107	=107	=107	=107	=107
2C/	.	.	2r	.	4e\	-lo-	.	4ee\
.	.	.	.	.	8e\	-ra	.	8cc\
.	.	.	.	.	8e\	la	.	8cc\
4D/	6	.	2r	.	8f\	ro-	.	16b-\LL
.	.	.	.	.	.	.	.	16a\
.	.	.	.	.	8f\	-sa	.	16b-\
.	.	.	.	.	.	.	.	16cc\JJ
4E\	.	.	.	.	8.g\	si	.	8b-\L
.	.	.	.	.	.	.	.	16cc\L
!	!	!	!	!	!LO:SIC:v:t=custos c	!	!	!
.	.	.	.	.	16g\	sco-	.	16b-\JJ
!	!	!	!	!	!LO:LB:g=original	!	!	!
=108	=108	=108	=108	=108	=108	=108	=108	=108
4F\	.	.	2r	.	4c\	-lo-	.	4a\
4FF/	.	.	.	.	8c\	-ra	.	8.a\
.	.	.	.	.	8f\	la	.	.
.	.	.	.	.	.	.	.	16a\
4GG/	-6r	.	2r	.	16e-X\LL	ro-	.	8b-\
.	.	.	.	.	16d\	.	.	.
.	.	.	.	.	16e-\	.	.	8b-\
.	.	.	.	.	16f\JJ	.	.	.
4AA/	6	.	.	.	8e-\L	.	.	8cc\
!	!	!	!	!	!	!	!	!LO:SIC:v:t=custos f
.	.	.	.	.	16f\L	.	.	8cc\
.	.	.	.	.	16e-\JJ	.	.	.
!	!	!	!	!	!	!	!	!LO:LB:g=original
=109	=109	=109	=109	=109	=109	=109	=109	=109
2BB-/	.	.	2r	.	4d\	.	.	4f/
.	.	.	.	.	8d\	-sa	.	8f/
.	.	.	.	.	8b-\	la	.	8dd\
4.F\	.	.	2r	.	16a\LL	ro-	.	16cc\LL
.	.	.	.	.	16g\	.	.	16b-\
.	.	.	.	.	16a\	.	.	16cc\
.	.	.	.	.	16b-\JJ	.	.	16dd\JJ
.	.	.	.	.	8a\L	.	.	8cc\L
8D/	6	.	.	.	16b-\L	.	.	16dd\L
.	.	.	.	.	16a\JJ	.	.	16cc\JJ
=110	=110	=110	=110	=110	=110	=110	=110	=110
4.E-X\	.	.	2r	.	16g\LL	.	.	16b-\LL
.	.	.	.	.	16f#X\	.	.	16a\
.	.	.	.	.	16g\	.	.	16b-\
.	.	.	.	.	16a\JJ	.	.	16cc\JJ
.	.	.	.	.	8g\L	.	.	8b-\L
!LO:SIC:v:t=custos DD	!	!	!	!	!	!	!	!
8C/	.	.	.	.	16a\L	.	.	16cc\L
.	.	.	.	.	16g\JJ	.	.	16b-\JJ
4.D\	.	.	2r	.	4f#\	.	.	4a\
!LO:LB:g=original	!	!	!	!	!	!	!	!
.	.	.	.	.	8f#\	-sa	.	8a\
8BB-/	.	.	.	.	8d\	la	.	8dd\
=111	=111	=111	=111	=111	=111	=111	=111	=111
8C/L	.	.	2r	.	8e\	ro-	.	8cc\
!	!	!	!	!	!LO:SIC:v:t=custos g	!	!	!
8D/J	.	.	.	.	8f#X\	-sa	.	8cc\
!	!	!	!	!	!LO:LB:g=original	!	!	!
4E-X\	.	.	.	.	8g\	si	.	8cc\
.	.	.	.	.	8g\	sco-	.	8b-\
4C/	.	.	2r	.	4.g\	-lo-	.	16a\LL
.	.	.	.	.	.	.	.	16g\
.	.	.	.	.	.	.	.	16a\
.	.	.	.	.	.	.	.	16b-\JJ
4D\	4:3	.	.	.	.	.	.	4a\
.	.	.	.	.	(8f#\	-ra	.	.
=112	=112	=112	=112	=112	=112	=112	=112	=112
2GG/	.	.	2r	.	8g\)	.	.	4b-\
.	.	.	.	.	8d\	del	.	.
.	.	.	.	.	8g\	mar-	.	4r
.	.	.	.	.	8f\	-si-	.	.
!	!	!	!	!	!	!	!	!LO:SIC:v:t=custos a
2C/	.	.	2r	.	16e\LL	-tur	.	2r
.	.	.	.	.	16f\	.	.	.
.	.	.	.	.	16g\	.	.	.
.	.	.	.	.	16f\JJ	.	.	.
.	.	.	.	.	16e\LL	.	.	.
.	.	.	.	.	16c\JJ	.	.	.
.	.	.	.	.	16cc\LL	.	.	.
.	.	.	.	.	16b-\JJ	.	.	.
!	!	!	!	!	!	!	!	!LO:LB:g=original
=113	=113	=113	=113	=113	=113	=113	=113	=113
2F\	.	.	2r	.	16a\LL	.	.	1r
.	.	.	.	.	16b-\	.	.	.
.	.	.	.	.	16g\	.	.	.
.	.	.	.	.	16a\JJ	.	.	.
.	.	.	.	.	16f\LL	.	.	.
.	.	.	.	.	16g\	.	.	.
.	.	.	.	.	16e\	.	.	.
.	.	.	.	.	16f\JJ	.	.	.
2BB-/	7:6	.	2r	.	4d\	.	.	.
.	.	.	.	.	(16d\LL	ba	.	.
.	.	.	.	.	16c\JJ)	.	.	.
.	.	.	.	.	(16d\LL	il	.	.
.	.	.	.	.	16e\JJ)	.	.	.
=114	=114	=114	=114	=114	=114	=114	=114	=114
4.AA/	#	.	2r	.	8c#X\	se-	.	1r
.	.	.	.	.	8A/	-no	.	.
.	.	.	.	.	8r	.	.	.
!	!	!	!	!	!LO:SIC:v:t=custos Bn	!	!	!
8FF/	.	.	.	.	8A/	si	.	.
!	!	!	!	!	!LO:LB:g=original	!	!	!
4GG/	#	.	2r	.	16Bn\LL	fran-	.	.
.	.	.	.	.	16c#\	.	.	.
.	.	.	.	.	16d\	.	.	.
.	.	.	.	.	16e\JJ	.	.	.
4AA/	#	.	.	.	16c#\LL	.	.	.
.	.	.	.	.	16d\	.	.	.
.	.	.	.	.	16B\	.	.	.
.	.	.	.	.	16c#\JJ	.	.	.
=115	=115	=115	=115	=115	=115	=115	=115	=115
4BB-/	.	.	2r	.	16d\LL	.	.	1r
.	.	.	.	.	16e\	.	.	.
.	.	.	.	.	16f\	.	.	.
.	.	.	.	.	16g\JJ	.	.	.
4C/	.	.	.	.	16e\LL	.	.	.
.	.	.	.	.	16f\	.	.	.
.	.	.	.	.	16d\	.	.	.
.	.	.	.	.	16e\JJ	.	.	.
2D/	.	.	2r	.	8f\	.	.	.
.	.	.	.	.	8f\	-ge	.	.
.	.	.	.	.	8r	.	.	.
.	.	.	.	.	8a\	a	.	.
=116	=116	=116	=116	=116	=116	=116	=116	=116
2GG/	.	.	2r	.	16b-X\LL	la	.	1r
.	.	.	.	.	16a\	.	.	.
.	.	.	.	.	16g\	.	.	.
.	.	.	.	.	16f\JJ	.	.	.
.	.	.	.	.	(16e\LL	.	.	.
.	.	.	.	.	16d\JJ)	.	.	.
.	.	.	.	.	(16g\LL	ta	.	.
.	.	.	.	.	16a\JJ)	.	.	.
2AA/	6:5 4:3	.	2r	.	8f\L	pro-	.	.
.	.	.	.	.	16g\L	.	.	.
.	.	.	.	.	16f\JJ	.	.	.
.	.	.	.	.	4e\	.	.	.
=117	=117	=117	=117	=117	=117	=117	=117	=117
2D/	.	.	2r	.	4d\	-ra	.	8r
.	.	.	.	.	.	.	.	8a\
.	.	.	.	.	4r	.	.	8dd\
.	.	.	.	.	.	.	.	8cc\
2GG/	.	.	2r	.	2r	.	.	16b-\LL
.	.	.	.	.	.	.	.	16cc\
.	.	.	.	.	.	.	.	16a\
.	.	.	.	.	.	.	.	16b-\JJ
.	.	.	.	.	.	.	.	8g\
.	.	.	.	.	.	.	.	16f/
.	.	.	.	.	.	.	.	16g\
=118	=118	=118	=118	=118	=118	=118	=118	=118
4.C/	.	.	2r	.	1r	.	.	8e/
.	.	.	.	.	.	.	.	8c/
.	.	.	.	.	.	.	.	8r
8C/	.	.	.	.	.	.	.	8e/
4D\	.	.	2r	.	.	.	.	16f\LL
.	.	.	.	.	.	.	.	16g\
.	.	.	.	.	.	.	.	16a\
.	.	.	.	.	.	.	.	16b-\JJ
4E\	6	.	.	.	.	.	.	16g\LL
.	.	.	.	.	.	.	.	16a\
.	.	.	.	.	.	.	.	16f\
.	.	.	.	.	.	.	.	16g\JJ
=119	=119	=119	=119	=119	=119	=119	=119	=119
4F\	.	.	2r	.	1r	.	.	4a\
4FF/	.	.	.	.	.	.	.	8a\
.	.	.	.	.	.	.	.	8a\
4GG/	-6r	.	2r	.	.	.	.	16b-\LL
.	.	.	.	.	.	.	.	16cc\
.	.	.	.	.	.	.	.	16dd\
.	.	.	.	.	.	.	.	16ee-X\JJ
!LO:SIC:v:t=custos BB-	!	!	!	!	!	!	!	!
4AA/	.	.	.	.	.	.	.	16cc\LL
.	.	.	.	.	.	.	.	16dd\
.	.	.	.	.	.	.	.	16b-\
!	!	!	!	!	!	!	!	!LO:SIC:v:t=custos dd
.	.	.	.	.	.	.	.	16cc\JJ
!LO:LB:g=original	!	!	!	!	!	!	!	!LO:LB:g=original
=120	=120	=120	=120	=120	=120	=120	=120	=120
2BB-/	.	.	2r	.	1r	.	.	4dd\
.	.	.	.	.	.	.	.	8dd\
.	.	.	.	.	.	.	.	8dd\
2C/	-	.	2r	.	.	.	.	16ee-X\LL
.	.	.	.	.	.	.	.	16dd\
.	.	.	.	.	.	.	.	16cc\
.	.	.	.	.	.	.	.	16b-\JJ
.	.	.	.	.	.	.	.	16a\LL
.	.	.	.	.	.	.	.	16g\JJ
.	.	.	.	.	.	.	.	(16cc\LL
.	.	.	.	.	.	.	.	16dd\JJ)
!	!	!	!	!	!LO:LB:g=original	!	!	!
=121	=121	=121	=121	=121	=121	=121	=121	=121
2D/	6:5 4:3	.	2r	.	2r	.	.	8b-\L
.	.	.	.	.	.	.	.	16cc\L
.	.	.	.	.	.	.	.	16b-\JJ
.	.	.	.	.	.	.	.	4a\
2G\	.	.	2r	.	4r	.	.	2g\
.	.	.	.	.	8r	.	.	.
.	.	.	.	.	8d\	S’of-	.	.
=122	=122	=122	=122	=122	=122	=122	=122	=122
[2G\	.	.	2r	.	4g\	-fus-	.	1r
.	.	.	.	.	8g\	-ca	.	.
.	.	.	.	.	8g\	un	.	.
4G\]	4 2	.	2r	.	16a\LL	bel	.	.
.	.	.	.	.	16g\	.	.	.
.	.	.	.	.	16a\	.	.	.
.	.	.	.	.	16b-\JJ	.	.	.
4F#X\	6	.	.	.	8a\	.	.	.
.	.	.	.	.	8a\	se-	.	.
=123	=123	=123	=123	=123	=123	=123	=123	=123
2G\	.	.	2r	.	4b-\	-re-	.	4r
.	.	.	.	.	8g\	-no	.	8r
.	.	.	.	.	8b-\	la	.	8g\
2F\	6	.	2r	.	16a\LL	ro-	.	4dd\
.	.	.	.	.	16g\	.	.	.
.	.	.	.	.	16a\	.	.	.
.	.	.	.	.	16b-\JJ	.	.	.
.	.	.	.	.	8a\L	.	.	8dd\
.	.	.	.	.	16b-\L	.	.	8dd\
.	.	.	.	.	16a\JJ	.	.	.
=124	=124	=124	=124	=124	=124	=124	=124	=124
2E\	7:6	.	2r	.	8g\	.	.	16ee\LL
.	.	.	.	.	.	.	.	16dd\
.	.	.	.	.	8f\	-sa	.	16ee\
.	.	.	.	.	.	.	.	16ff\JJ
.	.	.	.	.	8g\	si	.	8ee\
.	.	.	.	.	8a\	sco-	.	8ee\
2D/	.	.	2r	.	4f\	-lo-	.	4ff\
.	.	.	.	.	8f\	-ra	.	8dd\
!	!	!	!	!	!LO:SIC:v:t=custos g	!	!	!
.	.	.	.	.	8f\	la	.	8ff\
!	!	!	!	!	!LO:LB:g=original	!	!	!LO:LB:g=original
=125	=125	=125	=125	=125	=125	=125	=125	=125
8E-X\L	.	.	2r	.	8g\	ro-	.	8ee-X\
8F\J	.	.	.	.	8a\	-sa	.	8dd\
4G\	.	.	.	.	8b-\	si	.	8.dd\
.	.	.	.	.	8b-\	sco-	.	.
.	.	.	.	.	.	.	.	16cc\
4Eny\	6 5	.	2r	.	4.b-\	-lo-	.	16cc\LL
.	.	.	.	.	.	.	.	16b-\
.	.	.	.	.	.	.	.	16cc\
.	.	.	.	.	.	.	.	16dd\JJ
4F\	.	.	.	.	.	.	.	4cc\
.	.	.	.	.	(8a\	-ra	.	.
=126	=126	=126	=126	=126	=126	=126	=126	=126
2BB-/	.	.	2r	.	8b-\)	.	.	4dd\
.	.	.	.	.	8f\	del	.	.
.	.	.	.	.	8b-\	mar-	.	4r
.	.	.	.	.	8a\	-si-	.	.
2E-X\	.	.	2r	.	16g\LL	-tur	.	2r
.	.	.	.	.	16a\	.	.	.
.	.	.	.	.	16f\	.	.	.
.	.	.	.	.	16g\JJ	.	.	.
.	.	.	.	.	16e-X\LL	.	.	.
.	.	.	.	.	16f\	.	.	.
.	.	.	.	.	16d\	.	.	.
.	.	.	.	.	16e-\JJ	.	.	.
=127	=127	=127	=127	=127	=127	=127	=127	=127
2F\	.	.	2r	.	4c\	.	.	8r
.	.	.	.	.	.	.	.	8cc\
.	.	.	.	.	8c\	ba	.	8ff\
.	.	.	.	.	8c\	si	.	8ee-X\
2BB-/	5	.	2r	.	8d\L	tur	.	16dd\LL
.	.	.	.	.	.	.	.	16een\
.	.	.	.	.	16en\L	.	.	16cc\
.	.	.	.	.	16f\JJ	.	.	16dd\JJ
.	.	.	.	.	8g\	.	.	8b-\
.	.	.	.	.	16f\	ba	.	16a\
!	!	!	!	!	!LO:SIC:v:t=custos e	!	!	!
.	.	.	.	.	16g\	il	.	16b-\
!	!	!	!	!	!LO:LB:g=original	!	!	!
=128	=128	=128	=128	=128	=128	=128	=128	=128
2C/	6	.	2r	.	4e\	se-	.	4g\
.	.	.	.	.	4e\	-no	.	8g\
.	.	.	.	.	.	.	.	8g\
4C/	.	.	2r	.	8r	.	.	4cc\
.	.	.	.	.	8c\	si	.	.
4AA/	6	.	.	.	8f\	fran-	.	8cc\
.	.	.	.	.	8e-X\	ge a	.	8cc\
!	!	!	!	!	!	!	!	!LO:LB:g=original
=129	=129	=129	=129	=129	=129	=129	=129	=129
4BB-/	.	.	2r	.	16d\LL	la	.	(16b-\LL
.	.	.	.	.	16e-X\JJ	.	.	16cc\JJ)
.	.	.	.	.	8f\	ta	.	(16b-\LL
.	.	.	.	.	.	.	.	16a\JJ)
4C/	.	.	.	.	8.f\	pro-	.	4g\
.	.	.	.	.	(16en\	-ra	.	.
!LO:SIC:v:t=custos D	!	!	!	!	!	!	!	!
2F\	.	.	2r	.	4f\)	.	.	8a\
.	.	.	.	.	.	.	.	8cc\
.	.	.	.	.	8r	.	.	4ff\
.	.	.	.	.	8f\	si	.	.
!LO:LB:g=original	!	!	!	!	!	!	!	!
=130	=130	=130	=130	=130	=130	=130	=130	=130
4D/	6	.	2r	.	8b-\	fran-	.	8ff\
.	.	.	.	.	8a\	ge a	.	8ff\
4E-X\	.	.	.	.	(16g\LL	la	.	(16ee-X\LL
.	.	.	.	.	16a\JJ)	.	.	16ff\JJ)
.	.	.	.	.	8b-\	ta	.	(16ee-\LL
.	.	.	.	.	.	.	.	16dd\JJ)
4F\	.	.	2r	.	4.b-\	pro-	.	(16cc\LL
.	.	.	.	.	.	.	.	16b-\
.	.	.	.	.	.	.	.	16cc\
.	.	.	.	.	.	.	.	16dd\JJ)
4FF/	4:3	.	.	.	.	.	.	4cc\
.	.	.	.	.	(8a\	-ra	.	.
=131	=131	=131	=131	=131	=131	=131	=131	=131
4.BB-/	.	.	4r	.	4b-\)	.	.	4dd\
.	.	.	8r	.	8r	.	.	8r
!LO:TX::b:t=a 3	!	!	!	!	!	!	!	!
8B-\	.	.	8B-\	si	8d\	si	.	8f/
2B-\	.	.	4.B-\	strug-	4.d\	strug-	.	4.f/
!	!	!	!LO:SIC:v:t=custos G	!	!LO:SIC:v:t=custos e-	!	!	!
.	.	.	8B-\	-go-	8d\	-go-	.	8f/
!	!	!	!LO:LB:g=original	!	!LO:LB:g=original	!	!	!
=132	=132	=132	=132	=132	=132	=132	=132	=132
4G\	.	.	4G\	-no	4.e-X\	-no	.	4.g\
4E-X\	.	.	4E-X\	.	.	.	.	.
.	.	.	.	.	8e-\	le	.	8g\
2B-\	.	.	4B-\	ne-	4d\	ne-	.	4f/
!	!	!	!	!	!	!	!	!LO:SIC:v:t=custos b-
.	.	.	4B-\	-vi	4d\	-vi	.	4f/
!	!	!	!	!	!	!	!	!LO:LB:g=original
=133	=133	=133	=133	=133	=133	=133	=133	=133
4r	.	.	4r	.	4r	.	.	4r
4E-X\	.	.	4E-X\	si	4g\	si	.	4b-\
2E-\	.	.	4.E-\	strug-	4.g\	strug-	.	4.b-\
.	.	.	8E-\	-go-	8g\	-go-	.	8b-\
=134	=134	=134	=134	=134	=134	=134	=134	=134
4C/	.	.	4C/	-no	4a-X\	-no	.	4.cc\
4AA-X/	.	.	4AA-X/	le	4a-\	le	.	.
.	.	.	.	.	.	.	.	8cc\
2E-X\	.	.	4E-X\	ne-	4g\	ne-	.	4b-\
.	.	.	4E-\	-vi	4g\	-vi	.	4b-\
=135	=135	=135	=135	=135	=135	=135	=135	=135
*M3/2	*	*	*M3/2	*	*M3/2	*	*	*M3/2
2r	.	.	2r	.	2r	.	.	2r
2E-X\	.	.	2E-X\	gl’an-	2g\	gl’an-	.	2g\
2D/	6	.	2D\	-ni	2f\	-ni	.	2g\
=136	=136	=136	=136	=136	=136	=136	=136	=136
2E-X\	.	.	2E-X\	d’u-	2g\	d’u-	.	2g\
2D\	.	.	2D\	-na	2f\	-na	.	2g\
2C/	-6r	.	2C/	bel-	2e-X\	bel-	.	2f/
=137	=137	=137	=137	=137	=137	=137	=137	=137
2BB-/	.	.	2BB-/	-tà	2d\	-tà	.	2g\
!	!	!	!	!	!LO:SIC:v:t=custos c	!	!	!
1B-	.	.	1B-	quan-	1d	quan-	.	2r
.	.	.	.	.	.	.	.	2r
!	!	!	!	!	!LO:LB:g=original	!	!	!
=138	=138	=138	=138	=138	=138	=138	=138	=138
1.A-X	6	.	1A-X	-to	2c\	-to	.	1.r
.	.	.	.	.	1f	quan-	.	.
.	.	.	2A-\	son	.	.	.	.
=139	=139	=139	=139	=139	=139	=139	=139	=139
1.G	6	.	1.G	bre-	1e	-to	.	2r
.	.	.	.	.	.	.	.	1b-
.	.	.	.	.	2e\	son	.	.
=140	=140	=140	=140	=140	=140	=140	=140	=140
!LO:SIC:v:t=custos BB-	!	!	!	!	!	!	!	!
1.F	-	.	1.F	-vi	1f	bre-	.	1.a-X
.	.	.	.	.	2e-X\	-vi	.	.
!LO:LB:g=original	!	!	!LO:LB:g=original	!	!	!	!	!
=141	=141	=141	=141	=141	=141	=141	=141	=141
2BB-/	.	.	2BB-/	quan-	2d\	quan-	.	2g\
2C/	.	.	2C/	-to	2e\	-to	.	2g\
2D/	.	.	2D\	son	2f\	son	.	2g\
!	!	!	!	!	!	!	!	!LO:LB:g=original
=142	=142	=142	=142	=142	=142	=142	=142	=142
1.C	4:3	.	1.C	bre-	1f	bre-	.	1.g
.	.	.	.	.	(2en\	-vi	.	.
=143	=143	=143	=143	=143	=143	=143	=143	=143
2FF/	.	.	2FF/	-vi	2f\)	.	.	2a-X\
2F\	-	.	2F\	gl’an-	2a-X\	gl’an-	.	2r
2E\	6	.	2E\	-ni	2g\	-ni	.	2r
=144	=144	=144	=144	=144	=144	=144	=144	=144
2F\	-	.	2F\	d’u-	2a-X\	d’u-	.	1.r
2E-X\	.	.	2E-X\	-na	2g\	-na	.	.
2D/	.	.	2D\	bel-	2f\	bel-	.	.
=145	=145	=145	=145	=145	=145	=145	=145	=145
1C	-	.	2C/	-tà	2e-X\	-tà	.	2r
*	*	*	*	*	*	*ij	*	*
.	.	.	2C/	qua(n)-	2cc\	gl’an-	.	2ee-X\
2G\	.	.	2G\	-to	2b-\	-ni	.	2dd\
!	!	!	!	!	!LO:LB:g=original	!	!	!
=146	=146	=146	=146	=146	=146	=146	=146	=146
2C/	.	.	2C/	qua(n)-	2cc\	d’u-	.	(2ee-X\
1D	6	.	2.D\	-to	2b-\	-na	.	2dd\)
.	.	.	.	.	2a\	bel-	.	2cc\
.	.	.	4D\	son	.	.	.	.
=147	=147	=147	=147	=147	=147	=147	=147	=147
1.E-X	.	.	2E-X\	bre-	2g\	-tà	.	2b-\
*	*	*	*	*	*	*Xij	*	*
.	.	.	2E-\	-vi	[1g	quan-	.	1b-
.	.	.	2E-\	qua(n)-	.	.	.	.
=148	=148	=148	=148	=148	=148	=148	=148	=148
1.F	-9r:8	.	1.F	-to	2g\]	.	.	2a-X\
.	.	.	.	.	1f	-to	.	1a-
=149	=149	=149	=149	=149	=149	=149	=149	=149
1G	7:6	.	2G\	qua(n)-	2f\	qua(n)-	.	2g\
.	.	.	2G\	-to	2e-X\	-to	.	(2g\
2A-X\	.	.	2A-X\	son	2e-\	son	.	2f/)
=150	=150	=150	=150	=150	=150	=150	=150	=150
1.B-	4:3	.	1.B-	bre-	1e-X	bre-	.	1.f
.	.	.	.	.	(2d\	-vi	.	.
!	!	!	!LO:LB:g=original	!	!	!	!	!
=151	=151	=151	=151	=151	=151	=151	=151	=151
2E-X\	.	.	2E-X\	-vi	2e-X\)	.	.	2g\
1E-	.	.	1E-	qua(n)-	1g	qua(n)-	.	2r
.	.	.	.	.	.	.	.	2r
=152	=152	=152	=152	=152	=152	=152	=152	=152
1.D	6	.	1D	-to	2f\	-to	.	2r
.	.	.	.	.	1b-	qua(n)-	.	2r
.	.	.	2D\	son	.	.	.	2r
=153	=153	=153	=153	=153	=153	=153	=153	=153
1.C	6 -	.	1.C	bre-	1a	-to	.	2r
!	!	!	!	!	!	!	!	!LO:SIC:v:t=custos dd
.	.	.	.	.	.	.	.	1ee-X
.	.	.	.	.	2a\	so(n)	.	.
!	!	!	!	!	!	!	!	!LO:LB:g=original
=154	=154	=154	=154	=154	=154	=154	=154	=154
!LO:SIC:v:t=custos E-	!	!	!	!	!	!	!	!
1.BB-	.	.	1.BB-	-vi	1b-	bre-	.	1.dd
.	.	.	.	.	2a-X\	-vi	.	.
!LO:LB:g=original	!	!	!	!	!	!	!	!
=155	=155	=155	=155	=155	=155	=155	=155	=155
2E-X\	6	.	2E-X\	qua(n)-	2g\	qua(n)-	.	2cc\
2F\	.	.	2F\	-to	2a-X\	-to	.	2cc\
2G\	.	.	2G\	so(n)	2b-\	so(n)	.	2cc\
!	!	!	!	!	!LO:LB:g=original	!	!	!
=156	=156	=156	=156	=156	=156	=156	=156	=156
1.F	.	.	1.F	bre-	(1b-	bre-	.	1.cc
.	.	.	.	.	2a\)	.	.	.
=157	=157	=157	=157	=157	=157	=157	=157	=157
2BB-/	.	.	2BB-/	-vi	2b-\	-vi	.	2dd\
2B-\	.	.	2B-\	gl’an-	1r	.	.	2dd\
2A\	.	.	2A\	-ni	.	.	.	2cc\
=158	=158	=158	=158	=158	=158	=158	=158	=158
2B-\	.	.	2B-\	d’u-	1.r	.	.	2dd\
2A\	.	.	2A\	-na	.	.	.	2cc\
2G\	.	.	2G\	bel-	.	.	.	2b-\
=159	=159	=159	=159	=159	=159	=159	=159	=159
1.F	.	.	2F\	-tà	2r	.	.	2a\
.	.	.	[1FF	quan-	2f\	gl’an-	.	2a\
.	.	.	.	.	2e\	-ni	.	2g\
=160	=160	=160	=160	=160	=160	=160	=160	=160
1.FF	.	.	1.FF]	.	2f\	d’u-	.	2a\
.	.	.	.	.	2e\	-na	.	2g\
.	.	.	.	.	2d\	bel-	.	2f/
=161	=161	=161	=161	=161	=161	=161	=161	=161
2C/	.	.	2C/	-to	2e\	-tà	.	2g\
!	!	!	!LO:LB:g=original	!	!	!	!	!
1FF	.	.	1FF	quan-	1f	quan-	.	1a
!	!	!	!	!	!	!	!	!LO:LB:g=original
=162	=162	=162	=162	=162	=162	=162	=162	=162
1C	.	.	1C	-to	1e	-to	.	1g
2r	.	.	2r	.	2r	.	.	2r
=163	=163	=163	=163	=163	=163	=163	=163	=163
2r	.	.	2r	.	2r	.	.	2r
!	!	!	!	!	!	!	!LO:DY:b:t=piano	!
!	!	!LO:DY:b:t=piano	!	!	!	!	!	!
1F	.	p	1F	quan-	1f	quan-	p	1a
=164	=164	=164	=164	=164	=164	=164	=164	=164
1C	.	.	1C	-to	1e	-to	.	1g
2r	.	.	2r	.	2r	.	.	2r
=165	=165	=165	=165	=165	=165	=165	=165	=165
*	*	*	*	*ij	*	*	*	*
2AA/	6	.	2AA/	qua(n)-	2a\	qua(n)-	.	2cc\
1BB-	.	.	2BB-/	-to	2g\	-to	.	2b-\
*	*	*	*	*Xij	*	*	*	*
.	.	.	2BB-/	son	2f\	son	.	2a\
=166	=166	=166	=166	=166	=166	=166	=166	=166
1.C	.	.	1.C	bre-	1f	bre-	.	1.g
.	.	.	.	.	(2e\	-vi	.	.
=167	=167	=167	=167	=167	=167	=167	=167	=167
2FF/	.	.	2FF/	-vi	2f\)	.	.	2a\
1r	.	.	2r	.	2r	.	.	2r
.	.	.	2r	.	2r	.	.	2r
!	!	!	!	!	!LO:LB:g=original	!	!	!
=168	=168	=168	=168	=168	=168	=168	=168	=168
*M4/4	*	*	*M4/4	*	*M4/4	*	*	*M4/4
*met(c)	*	*	*met(c)	*	*met(c)	*	*	*met(c)
!	!	!	!LO:TX:a:i:t=solo	!	!	!	!	!
2FF/	.	.	4r	.	1r	.	.	2r
.	.	.	8r	.	.	.	.	.
.	.	.	8C/	le	.	.	.	.
4FF/	.	.	16F\LL	pom-	.	.	.	2r
.	.	.	16G\	.	.	.	.	.
.	.	.	16A\	.	.	.	.	.
.	.	.	16B-\JJ	.	.	.	.	.
4EE/	6	.	8c\	.	.	.	.	.
.	.	.	8C/	-pe	.	.	.	.
=169	=169	=169	=169	=169	=169	=169	=169	=169
2D/	7:6	.	16D\LL	di	2r	.	.	1r
.	.	.	16E\	.	.	.	.	.
.	.	.	16D\	.	.	.	.	.
.	.	.	16E\JJ	.	.	.	.	.
.	.	.	8.F\	.	.	.	.	.
.	.	.	16G\	be-	.	.	.	.
2C/	.	.	4E\	-lez-	2r	.	.	.
.	.	.	4C/	-za	.	.	.	.
!	!	!	!LO:LB:g=original	!	!	!	!	!
=170	=170	=170	=170	=170	=170	=170	=170	=170
1C	.	.	8c\	col-	2r	.	.	1r
.	.	.	16B-\LL	-po	.	.	.	.
.	.	.	16c\JJ	di	.	.	.	.
.	.	.	8G\L	tem-	.	.	.	.
.	.	.	16F\L	.	.	.	.	.
.	.	.	16G\JJ	.	.	.	.	.
.	.	.	8E\L	.	2r	.	.	.
.	.	.	16D\L	.	.	.	.	.
.	.	.	16E\JJ	.	.	.	.	.
.	.	.	8C/L	.	.	.	.	.
.	.	.	16BB-/L	.	.	.	.	.
.	.	.	16C/JJ	.	.	.	.	.
=171	=171	=171	=171	=171	=171	=171	=171	=171
4.EE/	6	.	4EE/	.	2r	.	.	1r
.	.	.	8EE/	-po	.	.	.	.
8FF/	.	.	8FF/	at-	.	.	.	.
2GG/	4:3	.	2GG/	-ter-	2r	.	.	.
=172	=172	=172	=172	=172	=172	=172	=172	=172
2C/	.	.	2CC/	-ba	2r	.	.	1r
4C/	.	.	4r	.	2r	.	.	.
8C/L	.	.	8r	.	.	.	.	.
8C/J	.	.	8C/	Ab-	.	.	.	.
=173	=173	=173	=173	=173	=173	=173	=173	=173
2.C/	.	.	8E\	-ba-	2r	.	.	1r
.	.	.	8E\	ti o-	.	.	.	.
.	.	.	8G\	-gni	.	.	.	.
.	.	.	8G\	fon-	.	.	.	.
.	.	.	4E\	-tez-	2r	.	.	.
!	!	!	!LO:SIC:v:t=custos F	!	!	!	!	!
8D\L	.	.	4C/	-za	.	.	.	.
8E\J	.	.	.	.	.	.	.	.
!	!	!	!LO:LB:g=original	!	!	!	!	!
=174	=174	=174	=174	=174	=174	=174	=174	=174
2F\	.	.	8r	.	2r	.	.	1r
.	.	.	8F\	Ab-	.	.	.	.
.	.	.	8A\	-ba-	.	.	.	.
.	.	.	8A\	ti o-	.	.	.	.
4F\	.	.	8c\	-gni	2r	.	.	.
.	.	.	8c\	fon-	.	.	.	.
8F\L	.	.	4A\	-tez-	.	.	.	.
8F\J	.	.	.	.	.	.	.	.
=175	=175	=175	=175	=175	=175	=175	=175	=175
4F\	.	.	4F\	-za	2r	.	.	1r
4AA/	6	.	8AA/	lun-	.	.	.	.
.	.	.	8AA/	go a-	.	.	.	.
2BB-/	.	.	4BB-/	-ſse-	2r	.	.	.
.	.	.	8C/	-dio	.	.	.	.
.	.	.	8D\	di	.	.	.	.
=176	=176	=176	=176	=176	=176	=176	=176	=176
2C/	4:3	.	16C\LL	guer-	2r	.	.	1r
.	.	.	16D\	.	.	.	.	.
.	.	.	16E\	.	.	.	.	.
.	.	.	16F\JJ	.	.	.	.	.
.	.	.	8G\L	.	.	.	.	.
.	.	.	8C\J	.	.	.	.	.
4F\	.	.	16F\LL	.	2r	.	.	.
.	.	.	16G\	.	.	.	.	.
.	.	.	16A\	.	.	.	.	.
.	.	.	16B-\JJ	.	.	.	.	.
!	!	!	!LO:TX:t=P:problem: mixed beam	!	!	!	!	!
4C/	.	.	8c\L	.	.	.	.	.
.	.	.	8C\J	.	.	.	.	.
=177	=177	=177	=177	=177	=177	=177	=177	=177
4FF/	.	.	4FF/	-ra	2r	.	.	1r
4BB-/	.	.	8r	.	.	.	.	.
!	!	!	!LO:SIC:v:t=custos D	!	!	!	!	!
.	.	.	8BB-/	Ab-	.	.	.	.
!	!	!	!LO:LB:g=original	!	!	!	!	!
2BB-/	.	.	8D\	-ba-	2r	.	.	.
.	.	.	8D\	ti o-	.	.	.	.
.	.	.	8F\	-gni	.	.	.	.
.	.	.	8F\	fon-	.	.	.	.
=178	=178	=178	=178	=178	=178	=178	=178	=178
4BB-/	.	.	4D\	-tez-	2r	.	.	1r
8BB-/L	.	.	4BB-/	-za	.	.	.	.
8BB-/J	.	.	.	.	.	.	.	.
!LO:SIC:v:t=custos E-	!	!	!	!	!	!	!	!
2E-X\	.	.	8r	.	2r	.	.	.
.	.	.	8E-X\	Ab-	.	.	.	.
.	.	.	8G\	-ba-	.	.	.	.
.	.	.	8G\	ti o-	.	.	.	.
!LO:LB:g=original	!	!	!	!	!	!	!	!
=179	=179	=179	=179	=179	=179	=179	=179	=179
4E-X\	.	.	8B-\	-gni	2r	.	.	1r
.	.	.	8B-\	fon-	.	.	.	.
2E-\	.	.	4G\	-tez-	.	.	.	.
.	.	.	4E-X\	-za	2r	.	.	.
4GG/	6	.	8GG/	lun-	.	.	.	.
.	.	.	8GG/	go a-	.	.	.	.
=180	=180	=180	=180	=180	=180	=180	=180	=180
2AA-X/	6	.	4AA-X/	-ſse-	2r	.	.	1r
.	.	.	8BB-/	-di-	.	.	.	.
.	.	.	8C/	-o	.	.	.	.
2BB-/	.	.	16BB-/LL	di	2r	.	.	.
.	.	.	16C/	.	.	.	.	.
.	.	.	16D/	.	.	.	.	.
.	.	.	16E/JJ	.	.	.	.	.
.	.	.	(>8F/	guer-	.	.	.	.
!	!	!	!LO:SIC:v:t=custos E-	!	!	!	!	!
.	.	.	8BB-/)	.	.	.	.	.
!	!	!	!LO:LB:g=original	!	!	!	!	!
=181	=181	=181	=181	=181	=181	=181	=181	=181
4E-X\	.	.	16E-X\LL	.	2r	.	.	1r
.	.	.	16F\	.	.	.	.	.
.	.	.	16G\	.	.	.	.	.
.	.	.	16A\JJ	.	.	.	.	.
!	!	!	!LO:TX:t=P:problem: mixed beam	!	!	!	!	!
4B-\	.	.	8B-\L	.	.	.	.	.
.	.	.	8BB-\J	.	.	.	.	.
4E-\	.	.	4E-\	-ra	2r	.	.	.
4D\	.	.	8D\	lun-	.	.	.	.
.	.	.	8D\	go a-	.	.	.	.
=182	=182	=182	=182	=182	=182	=182	=182	=182
2E-X\	.	.	4E-X\	-ſse-	2r	.	.	1r
.	.	.	8F\	-dio	.	.	.	.
.	.	.	8G\	di	.	.	.	.
2F\	.	.	16F\LL	guer-	2r	.	.	.
.	.	.	16G\	.	.	.	.	.
.	.	.	16A\	.	.	.	.	.
.	.	.	16B-\JJ	.	.	.	.	.
.	.	.	8c\L	.	.	.	.	.
.	.	.	8F\J	.	.	.	.	.
=183	=183	=183	=183	=183	=183	=183	=183	=183
4BB-/	.	.	16BB-/LL	.	2r	.	.	1r
.	.	.	16C/	.	.	.	.	.
.	.	.	16D/	.	.	.	.	.
.	.	.	16E-X/JJ	.	.	.	.	.
!	!	!	!LO:TX:t=P:problem: mixed beam	!	!	!	!	!
4F\	.	.	8F/L	.	.	.	.	.
.	.	.	8FF/J	.	.	.	.	.
2BB-/	.	.	2BB-/	-ra	2r	.	.	.
=184	=184	=184	=184	=184	=184	=184	=184	=184
!LO:TX:b:t=a 3	!	!	!	!	!	!	!	!
2B-\	.	.	4r	.	4r	.	.	4r
!	!	!	!	!	!LO:TX:B:t=adagio	!	!	!
.	.	.	4B-\	Co-	4d\	Co-	.	4f/
2B-\	.	.	2B-\	-si	2d\	-si	.	2f/
=185	=185	=185	=185	=185	=185	=185	=185	=185
4G\	.	.	4G\	fa	4e-X\	fa	.	4g\
4E-X\	.	.	8.E-X\	la	8.e-\	la	.	8.g\
.	.	.	16E-\	na-	16e-\	na-	.	16g\
2B-\	.	.	4B-\	-tu-	4d\	-tu-	.	4f/
!	!	!	!	!	!	!	!	!LO:SIC:v:t=custos b-
.	.	.	4B-\	-ra	4d\	-ra	.	4f/
!	!	!	!LO:LB:g=original	!	!	!	!	!LO:LB:g=original
=186	=186	=186	=186	=186	=186	=186	=186	=186
4r	.	.	4r	.	4r	.	.	4r
4E-X\	.	.	4E-X\	Co-	4g\	Co-	.	4b-\
2E-\	.	.	2E-\	-si	2g\	-si	.	2b-\
=187	=187	=187	=187	=187	=187	=187	=187	=187
4C/	.	.	4C/	fa	4a-X\	fa	.	4cc\
4AA-X/	.	.	8.AA-X/	la	8.a-\	la	.	8.cc\
.	.	.	16AA-/	na-	16a-\	na-	.	16cc\
2E-X\	.	.	4E-X\	-tu-	4g\	-tu-	.	4b-\
!	!	!	!	!	!LO:SIC:v:t=custos g	!	!	!
.	.	.	4E-\	-ra	4g\	-ra	.	4b-\
!	!	!	!	!	!LO:LB:g=original	!	!	!
=188	=188	=188	=188	=188	=188	=188	=188	=188
*M3/2	*	*	*M3/2	*	*M3/2	*	*	*M3/2
2r	.	.	2r	.	2r	.	.	2r
!LO:TX:b:t=volto	!	!	!	!	!	!	!	!
2E-X\	.	.	2E-X\	vol-	2g\	vol-	.	2b-\
!LO:SIC:v:t=custos E-	!	!	!	!	!	!	!	!
2D/	6	.	2D\	-to	2f\	-to	.	2b-\
!LO:LB:g=original	!	!	!	!	!	!	!	!
=189	=189	=189	=189	=189	=189	=189	=189	=189
2E-X\	.	.	2E-X\	che	2g\	che	.	2b-\
2D/	.	.	2D\	bel-	2f\	bel-	.	2b-\
2C/	6| -	.	2C/	-lo	2e-X\	-lo	.	2a\
=190	=190	=190	=190	=190	=190	=190	=190	=190
2BB-/	.	.	2BB-/	sia	2d\	sia	.	2b-\
1B-	.	.	1B-	pa-	1d	pa-	.	2r
.	.	.	.	.	.	.	.	2r
=191	=191	=191	=191	=191	=191	=191	=191	=191
1.A-X	6	.	1A-X	ssa è	2c\	-ssa	.	2r
.	.	.	.	.	1f	pa-	.	2r
.	.	.	2A-\	nòn	.	.	.	2r
=192	=192	=192	=192	=192	=192	=192	=192	=192
1.G	6	.	1.G	du-	2e\	ssa è	.	2r
.	.	.	.	.	2e\	nòn	.	1b-
.	.	.	.	.	2e\	du-	.	.
=193	=193	=193	=193	=193	=193	=193	=193	=193
!	!	!	!LO:SIC:v:t=custos BB-	!	!	!	!	!LO:SIC:v:t=custos g
1.F	-	.	1.F	-ra	1f	.	.	1.a-X
.	.	.	.	.	2e-X\	-ra	.	.
!	!	!	!LO:LB:g=original	!	!	!	!	!LO:LB:g=original
=194	=194	=194	=194	=194	=194	=194	=194	=194
*	*	*	*	*ij	*	*	*	*
2BB-/	.	.	2BB-/	pa-	2d\	pa-	.	2g\
2C/	.	.	2C/	ssa è	2en\	ssa è	.	2g\
2D/	.	.	2D/	nòn	2f\	nòn	.	2g\
=195	=195	=195	=195	=195	=195	=195	=195	=195
1.C	4:3	.	1.C	du-	1f	du-	.	1.g
.	.	.	.	.	(2en\	-ra	.	.
!	!	!	!	!	!LO:LB:g=original	!	!	!
=196	=196	=196	=196	=196	=196	=196	=196	=196
2FF/	.	.	2FF/	-ra	2f\)	.	.	2a-X\
*	*	*	*	*Xij	*	*	*	*
2F\	-	.	2F\	vol-	2a-X\	vol-	.	2r
2E\	6	.	2E\	-to	2g\	-to	.	2r
=197	=197	=197	=197	=197	=197	=197	=197	=197
2F\	-	.	2F\	che	2a-X\	che	.	2r
2E-X\	.	.	2E-X\	bel-	2g\	bel-	.	2r
2D\	.	.	2D\	-lo	2f\	-lo	.	2r
=198	=198	=198	=198	=198	=198	=198	=198	=198
1C	.	.	[2C/	sia	2e-X\	sia	.	2r
.	.	.	2C/]	.	2cc\	vol-	.	2ee-X\
2G\	.	.	2G\	che	2b-\	-to	.	2dd\
=199	=199	=199	=199	=199	=199	=199	=199	=199
!	!	!	!	!	!	!	!	!
2C/	.	.	2C/	bel-	2cc\	che	.	2ee-X\
1D	6	.	[<2.D/	-lo	2b-\	bel-	.	2dd\
.	.	.	.	.	.	.	.	.
.	.	.	.	.	2a\	-lo	.	2cc\
.	.	.	4D/]	.	.	.	.	.
=200	=200	=200	=200	=200	=200	=200	=200	=200
1.E-X	.	.	2E-X\	sia	2g\	sia	.	2b-\
.	.	.	2E-\	pa-	[1g	pa-	.	1b-
.	.	.	2E-\	-ſsa	.	.	.	.
=201	=201	=201	=201	=201	=201	=201	=201	=201
!LO:SIC:v:t=custos G	!	!	!	!	!	!	!	!
1.F	9:8 -	.	1.F	pa-	2g\]	.	.	2a-X\
.	.	.	.	.	1f	-ssa	.	1a-
!LO:LB:g=original	!	!	!	!	!	!	!	!
=202	=202	=202	=202	=202	=202	=202	=202	=202
1G	7:6	.	2G\	-ſsa	2f\	pa-	.	2g\
.	.	.	2G\	è	2e-X\	ssa è	.	2g\
2A\	.	.	2A-X\	nòn	2e-\	no(n)	.	2f/
!	!	!	!LO:LB:g=original	!	!	!	!	!
=203	=203	=203	=203	=203	=203	=203	=203	=203
!	!	!	!	!	!	!	!	!LO:SIC:v:t=custos g
1.B-	.	.	1.B-	du-	1e-X	du-	.	1.f
.	.	.	.	.	(2d\	-ra	.	.
!	!	!	!	!	!	!	!	!LO:LB:g=original
=204	=204	=204	=204	=204	=204	=204	=204	=204
2E-X\	.	.	2E-X\	-ra	2e-X\)	.	.	2g\
1E-	.	.	1E-	pa-	1g	pa-	.	2r
.	.	.	.	.	.	.	.	2r
=205	=205	=205	=205	=205	=205	=205	=205	=205
1.D	.	.	1D	ssa è	2f\	-ssa	.	2r
.	.	.	.	.	1b-	pa-	.	2r
.	.	.	2D\	nòn	.	.	.	2r
!	!	!	!	!	!LO:LB:g=original	!	!	!
=206	=206	=206	=206	=206	=206	=206	=206	=206
1.C	.	.	1.C	du-	1a	ssa è	.	2r
.	.	.	.	.	.	.	.	1ee-X
.	.	.	.	.	2a\	nòn	.	.
=207	=207	=207	=207	=207	=207	=207	=207	=207
1.BB-	.	.	1.BB-	-ra	1b-	du-	.	1.dd
.	.	.	.	.	2a-X\	-ra	.	.
=208	=208	=208	=208	=208	=208	=208	=208	=208
2E-X\	6	.	2E-X\	pa-	2g\	pa-	.	2cc\
2F\	.	.	2F\	ssa è	2a-X\	ssa è	.	2cc\
2G\	.	.	2G\	nòn	2b-\	nòn	.	2cc\
=209	=209	=209	=209	=209	=209	=209	=209	=209
1.F	4:3	.	1.F	du-	1b-	du-	.	1.cc
.	.	.	.	.	(2a\	-ra	.	.
=210	=210	=210	=210	=210	=210	=210	=210	=210
2BB-/	.	.	2BB-/	-ra	2b-\)	.	.	2dd\
2B-\	.	.	2B-\	vol-	2r	.	.	2dd\
2A\	6	.	2A\	-to	2r	.	.	2cc\
=211	=211	=211	=211	=211	=211	=211	=211	=211
2B-\	.	.	2B-\	che	2r	.	.	2dd\
2A\	.	.	2A\	bel-	2r	.	.	2cc\
2G\	.	.	2G\	-lo	2r	.	.	2b-\
=212	=212	=212	=212	=212	=212	=212	=212	=212
1.F	.	.	2F\	sia	2r	.	.	2a\
.	.	.	[>1FF	pa-	2f\	vol-	.	2a\
!	!	!	!	!	!	!	!	!LO:SIC:v:t=custos a
.	.	.	.	.	2e\	-to	.	2g\
!	!	!	!	!	!	!	!	!LO:LB:g=original
=213	=213	=213	=213	=213	=213	=213	=213	=213
!	!	!	!LO:SIC:v:t=custos C	!	!	!	!	!
1.FF	.	.	1.FF]	.	2f\	che	.	2a\
.	.	.	.	.	2e\	bel-	.	2g\
.	.	.	.	.	2d\	-lo	.	2f/
!	!	!	!LO:LB:g=original	!	!	!	!	!
=214	=214	=214	=214	=214	=214	=214	=214	=214
2C/	.	.	2C/	-ssa	2e\	sia	.	2g\
1FF	.	.	1FF	pa-	1f	pa-	.	1a
=215	=215	=215	=215	=215	=215	=215	=215	=215
1C	.	.	1C	-ssa	1e	-ſsa	.	1g
!LO:SIC:v:t=custos F	!	!	!	!	!	!	!	!
2r	.	.	2r	.	2r	.	.	2r
!LO:LB:g=original	!	!	!	!	!LO:LB:g=original	!	!	!
=216	=216	=216	=216	=216	=216	=216	=216	=216
2r	.	.	2r	.	2r	.	.	2r
!	!	!LO:DY:t=pian	!	!	!	!	!	!
1F	.	p	1F	pa-	1f	pa-	.	1a
=217	=217	=217	=217	=217	=217	=217	=217	=217
1C	.	.	1C	-ſsa	1e	-ſsa	.	1g
2r	.	.	2r	.	2r	.	.	2r
=218	=218	=218	=218	=218	=218	=218	=218	=218
2AA/	6	.	2AA/	pa-	2a\	pa-	.	2cc\
1BB-	.	.	2BB-/	ſsa è	2g\	ſsa è	.	2b-\
.	.	.	2BB-/	nòn	2f\	nòn	.	2a\
=219	=219	=219	=219	=219	=219	=219	=219	=219
1.C	.	.	1.C	du-	1f	du-	.	1.g
.	.	.	.	.	2e\	.	.	.
=220	=220	=220	=220	=220	=220	=220	=220	=220
2FF;/	.	.	2FF/	-ra	2f^;\	-ra	.	2a\
2r	.	.	2r	.	2r	.	.	2r
2r	.	.	2r	.	2r	.	.	2r
==	==	==	==	==	==	==	==	==
*-	*-	*-	*-	*-	*-	*-	*-	*-
!!!system-decoration: [(s1,s2,s3)]s4
!!!RDF**kern: > = above
!!!RDF**kern: < = below
!!!ENC: Arek Malec
!!!END: 2022-01-26
!!!AIN: 1 alto 1 bass 1 soprn
!!!ENC: Natalia Wrzos
!!!END: 2022-02-19
